X: 30362
M: 6/8
L: 1/8
K: D
|:\
|:\
dcB AFA | GBE FAD | dcB AFA | GCE D3 |\
dcB AFA | GBE FAD | DFA dfa | gce d3 :|


